X: 118104
T: MARY OF CASTLECARY
Q: "Reel."
R:  Reel.
%R: reel
B: James Kerr "Merry Melodies" v.1 p.18 s.1 #4
Z: 2017 John Chambers <jc:trillian.mit.edu>
M: C
L: 1/8
K: Am
|: vA>uG |\
E>A A/A/A A2Bc | B2AG (uBd)dg |\
e>e e/e/e d2eg | e2dB A2 :|\
A>B |\
G>g g/g/g g2ab | B2AG (uBd)dg |
e>a a/a/a a2ga | b2ag e2eg |\
d>g g/g/g g2ab | B2AG (Bd)dg |\
e>e e/e/e d2eg | e2dB A2 |]

%%sep 1 1 500
%%sep 1 1 500

